X: 71
T: Grano's March
%%VWML:Wrights-3753-p36-0
F: http://www.vwml.org/record/Wrights/3753/p36
%R: march
B: Daniel Wright "Wright's Compleat Collection of Celebrated Country Dances" 1740 p.36
S: http://library.efdss.org/cgi-bin/dancebooks.cgi
Z: 2014 John Chambers <jc:trillian.mit.edu>
M: 2/2 % Actually, the time signature is just "2".
N: Repeats added to match the Note.
L: 1/8
K: D
%-------------------------
A2 |\
d4 e4 | f2d2 d2a2 | f2d2 d2A2 | d2A2 F2D2 |\
d4 e4 | f2d2 d2ag | fgfg (f3f/g/) | a6 :|
cd |\
e4 f4 | e2c2 c2A2 | dede e4 | f6 ag |\
f2a2 e2a2 | d2A2 dede | f2gf e3d | d6 |]
%-------------------------
%%center Note: The first Strain twice the last but once.
%%begintext align
%% The 1st Man cast off, & whole Figure with the 3d Cu.
%% .| Then his Partner cast off and lead thro' the 3d Cu.
%% and thro' the 2d Cu. then they are both in the 2d
%% Cu. Place :| Then the 1st Cu. cross over below the
%% 3d Cu. and half Figure and lead up into the 2d Cu.
%% Place, and Right & Left quite round & turn your Partner .|
%%endtext
%-------------------------
%%sep 2 4 300
T: Nutkins March
T: Longways for as many as will.
%R: march
B: Daniel Wright "Wright's Compleat Collection of Celebrated Country Dances" 1740 p.36
S: http://library.efdss.org/cgi-bin/dancebooks.cgi
Z: 2014 John Chambers <jc:trillian.mit.edu>
N: Repeats modified to match the "Each Strain twice" instruction.
M: 2/2 % The book has just "2"
L: 1/8
K: D
%-------------------------
A2 |\
d4 A4 | d2A2 F2D2 | f2d2 fagf | e6 fg |\
afdf afdf | a2e2 e2d2 | cagf edcB | A6 :|
|: ed |\
cagf edcB | c2A2 A3A | d3e e2de | f6 ag |\
f2a2 d2f2 | A2d2 F2A2 | D2d2 e2(dc) | d6 :|
%-------------------------
%%center Note: Each Strain twice. A double Dance.
%%begintext align
%% The 1st & 2d Man lead thro' & go round the 1st & 2d Wo. &
%% turn, & 1st Man leave off in 2d Mans place, 1st Man &
%% 2d Wo. do the same, 1st Man turn 3d Wo. & 1st Wo. 2d man
%% & turn Partners & then do the same at the other Corners, 1st Cu. %% Back to back the Man turn the 2d Man the Wo. turn the 2d Wo. %% 1st Cu. Back with 2d Cu. & turn Partners, 1st Man go round
%% 3d Wo. & 1st Wo. round 2d Man, then meet in the middle &
%% turn, then the 1st Man go round the 3d Man and 1st Wo. %% round the 2d Wo. & turn in the 2d Cu Place.
%%endtext
%-------------------------
%%sep 2 4 300
